svg/toy_brick_plus_outline.svg

<svg xmlns="http://www.w3.org/2000/svg" viewBox="0 0 24 24"><path d="M19 6V5a2 2 0 0 0-2-2h-2a2 2 0 0 0-2 2v1h-2V5a2 2 0 0 0-2-2H7a2 2 0 0 0-2 2v1H3v14h11v-2H5V8h14v5h2V6m0 9v3h3v2h-3v3h-2v-3h-3v-2h3v-3Z"/></svg>

<?xml version="1.0" encoding="UTF-8"?><!DOCTYPE svg PUBLIC "-//W3C//DTD SVG 1.1//EN" "http://www.w3.org/Graphics/SVG/1.1/DTD/svg11.dtd"><svg xmlns="http://www.w3.org/2000/svg" xmlns:xlink="http://www.w3.org/1999/xlink" version="1.1" id="mdi-toy-brick-plus-outline" width="24" height="24" viewBox="0 0 24 24"><path d="M19 6V5A2 2 0 0 0 17 3H15A2 2 0 0 0 13 5V6H11V5A2 2 0 0 0 9 3H7A2 2 0 0 0 5 5V6H3V20H14V18H5V8H19V13H21V6M21 15V18H24V20H21V23H19V20H16V18H19V15Z" /></svg>
